!!!ONB: MCCC : IWM0416_03 : Extracted Monophonic Melody
!!!COM: Mozart, Wolfgang Amadeus
!!!OPR: Piano Sonata No.16
!!!OMV: 3
!!!SCT: K.545
!!!ODT: 1788///
**kern
*thru
*staff1
*>A
*clefG2
*k[]
*C:
*M2/4
*MM112
8gg
8gg
=1
8ee
8r
8ff
8ff
=2
8dd
8r
16cc
16dd
16ee
16cc
=3
16a
16b
16cc
16cc#
16dd
16ee
16ff
16dd
=4
16cc
16b
16a
16g
8gg
8gg
=5
8ee
8r
8aa
8aa
=6
8dd
8r
16aa
16gg
16ff
16ee
=7
16cc#
16dd
16ee
16ff
16a
16cc
16b
16dd
=8
8cc
8r
*>A
*M2/4
8gg
8gg
=9
8ee
8r
8ff
8ff
=10
8dd
8r
16cc
16dd
16ee
16cc
=11
16a
16b
16cc
16cc#
16dd
16ee
16ff
16dd
=12
16cc
16b
16a
16g
8gg
8gg
=13
8ee
8r
8aa
8aa
=14
8dd
8r
16aa
16gg
16ff
16ee
=15
16cc#
16dd
16ee
16ff
16a
16cc
16b
16dd
=16
8cc
8r
*>B
16ee
16ff#
16gg
16gg
=17
16aa
16gg
16ff#
16ee
16dd
16dd
16dd
16dd
=18
16ee
16dd
16cc
16b
16eee
16ddd
16ccc
16bb
=19
16gg#
16aa
16bb
16ccc
16ee
16ff#
16gg
16aa
=20
16gg
16ff#
16ee
16dd
8ddd
8ddd
=21
8bb
8r
8ccc
8ccc
=22
8aa
8r
16gg
16aa
16bb
16gg
=23
16dd#
16ee
16gg
16ee
16dd
16b
16cc
16a
=24
8g
8r
16g
16a
16b
16cc
=25
8dd
8r
16b
16cc
16dd
16ee
=26
8ff
8r
16dd
16ee
16ff
16gg
=27
8aa
8aa-
8gg
8ff#
=28
8ff
8r
8gg
8gg
=29
8ee
8r
8ff
8ff
=30
8dd
8r
16cc
16dd
16ee
16cc
=31
16a
16b
16cc
16cc#
16dd
16ee
16ff
16dd
=32
16cc
16b
16a
16g
8gg
8gg
=33
8ee
8r
8aa
8aa
=34
8dd
8r
16aa
16gg
16ff
16ee
=35
16cc#
16dd
16ee
16ff
16a
16cc
16b
16dd
=36
8cc
8r
4r
=37
16ee
16dd#
16ff
16ee
4r
=38
16ee
16dd#
16ff
16ee
8ccc
8ccc
=39
8aa
8r
8bb
8bb
=40
8gg#
8r
16aa
16ee
16cc
16a
=41
16cc
16b-
16b-
16b-
16dd
16cc#
16cc#
16cc#
=42
16ee
16dd
16ff
16ee
16gg
16ff
16ff
16ee
=43
16ee
16dd#
4ccc
8dd#
=44
8ee
8r
16bb
16gg#
16ee
16dd
=45
16cc
16ee
16aa
16gg#
16aa
16ee
16cc
16a
=46
16g#
16b
16ee
16gg#
16bb
16gg#
16ee
16dd
=47
16cc
16ee
16aa
16gg#
16aa
16ee
16cc
16a
=48
8e
8r
8ee
8ee
=49
8cc
8r
8dd
8dd
=50
8b
8r
4r
=51
16e
16d#
16f
16e
4r
=52
16eee
16ddd#
16fff
16eee
16ddd
16ccc#
16eee
16ddd
=53
16ddd
16ccc
16ccc
16bb
16bb
16aa
16aa
16gg
=54
16gg
16ff
16ff
16ee
16ee
16dd
16dd
16cc
=55
16b-
16ff
16dd
16b-
8a
8g#
=56
8a
8r
16g#
16dd
16b
16g#
=57
8a
8r
16g#
16dd
16b
16g#
=58
8a
8r
16g#
16dd
16b
16g#
=59
16a
16ee
16cc
16a
16b
16ff
16dd
16b
=60
4r
8gg
8gg
=61
8ee
8r
8ff
8ff
=62
8dd
8r
16cc
16dd
16ee
16cc
=63
16a
16b
16cc
16cc#
16dd
16ee
16ff
16dd
=64
16cc
16b
16a
16g
8gg
8gg
=65
8ee
8r
8aa
8aa
=66
8dd
8r
16aa
16gg
16ff
16ee
=67
16cc#
16dd
16ee
16ff
16a
16cc
16b
16dd
=68
8cc
8r
16b
16ff
16dd
16b
=69
16aa
16gg
16ff
16ee
16dd
16ff
16dd
16b
=70
16aa
16gg
16ff
16ee
16ddd
16ccc
16bb
16aa
=71
16aa
16gg
16ff
16ee
16ee
16dd
16cc
16b
=72
8dd
8cc
16b
16ff
16dd
16b
=73
16aa
16gg
16ff
16ee
16dd
16ff
16dd
16b
=74
16aa
16gg
16ff
16ee
16ddd
16ccc
16bb
16aa
=75
16aa
16gg
16ff
16ee
16ee
16dd
16cc
16b
=76
16cc
16ee
16g
16cc
16e
16g
16c
16e
=77
16g
16cc
16ee
16gg
16gg
16ff
16ee
16dd
=78
16cc
16ee
16g
16cc
16e
16g
16c
16e
=79
16g
16cc
16ee
16gg
16gg
16ff
16ee
16dd
=80
8cc
8ccc
8cc
8cc
=81
4cc
4r
==
*-
